tools/download-figma-icons/icons/outlined-large/cold.svg

<svg width="64" height="65" viewBox="0 0 64 65" fill="none" xmlns="http://www.w3.org/2000/svg">
<path d="M24.0217 64.0034C23.0145 64.0023 22.01 63.8985 21.0239 63.6934C18.4756 63.1624 16.1288 61.9226 14.2533 60.1165C12.3778 58.3104 11.0496 56.0112 10.4216 53.4834C9.77944 50.9805 9.8725 48.3453 10.6896 45.894C11.5067 43.4427 13.0132 41.2793 15.0282 39.6634V8.5034C15.0962 6.18332 16.0814 3.98507 17.7677 2.39137C19.4539 0.797668 21.7032 -0.0611909 24.0217 0.00339608C26.3395 -0.0585291 28.5873 0.801221 30.2729 2.39437C31.9586 3.98751 32.9446 6.18421 33.0152 8.5034V39.7534C34.595 41.0158 35.8662 42.6222 36.732 44.4504C37.5978 46.2786 38.0354 48.2804 38.0116 50.3034C38.0143 52.3215 37.5673 54.3148 36.7029 56.1381C35.8386 57.9614 34.5788 59.5689 33.0152 60.8434C30.4744 62.9088 27.2951 64.0259 24.0217 64.0034ZM24.0217 3.0034C22.4988 2.94099 21.0132 3.48453 19.8897 4.51518C18.7662 5.54584 18.0961 6.97975 18.0261 8.5034V41.1934L17.3865 41.6334C15.6614 42.8665 14.351 44.5945 13.6283 46.589C12.9057 48.5835 12.805 50.7504 13.3395 52.8034C13.8242 54.7821 14.8583 56.5832 16.3224 57.9987C17.7864 59.4143 19.6207 60.3866 21.6135 60.8034C23.2594 61.1621 24.9647 61.1471 26.6041 60.7595C28.2435 60.3718 29.7752 59.6214 31.0866 58.5634C32.317 57.5683 33.3086 56.3096 33.9883 54.8801C34.668 53.4505 35.0184 51.8865 35.0138 50.3034C35.0493 48.6263 34.6702 46.9663 33.9101 45.4712C33.15 43.9761 32.0325 42.6921 30.6569 41.7334L30.0174 41.2834V8.5034C29.9473 6.97975 29.2773 5.54584 28.1538 4.51518C27.0302 3.48453 25.5446 2.94099 24.0217 3.0034Z" fill="black"/>
<path d="M52.5011 29.0034H40.5098C40.1122 29.0034 39.731 28.8454 39.4499 28.5641C39.1688 28.2828 39.0109 27.9012 39.0109 27.5034C39.0109 27.1056 39.1688 26.7241 39.4499 26.4428C39.731 26.1615 40.1122 26.0034 40.5098 26.0034H52.5011C52.8986 26.0034 53.2799 26.1615 53.561 26.4428C53.8421 26.7241 54 27.1056 54 27.5034C54 27.9012 53.8421 28.2828 53.561 28.5641C53.2799 28.8454 52.8986 29.0034 52.5011 29.0034Z" fill="black"/>
<path d="M24.0217 57.0034C22.5338 57.002 21.085 56.5259 19.886 55.6441C18.687 54.7623 17.8003 53.5209 17.3545 52.1003C16.9088 50.6797 16.9274 49.1538 17.4076 47.7444C17.8878 46.3351 18.8045 45.1157 20.0246 44.2634V29.0034H28.0188V44.2634C29.2389 45.1157 30.1557 46.3351 30.6359 47.7444C31.116 49.1538 31.1346 50.6797 30.6889 52.1003C30.2432 53.5209 29.3564 54.7623 28.1574 55.6441C26.9584 56.5259 25.5097 57.002 24.0217 57.0034ZM23.0224 32.0034V46.0034L22.203 46.4134C21.543 46.7509 20.9898 47.2653 20.6051 47.8993C20.2204 48.5332 20.0194 49.2617 20.0246 50.0034C20.0246 51.0643 20.4457 52.0817 21.1953 52.8318C21.9449 53.582 22.9616 54.0034 24.0217 54.0034C25.0818 54.0034 26.0985 53.582 26.8481 52.8318C27.5977 52.0817 28.0188 51.0643 28.0188 50.0034C28.0176 49.2696 27.8146 48.5502 27.4321 47.9241C27.0497 47.2979 26.5025 46.7892 25.8504 46.4534L25.021 46.0034V32.0034H23.0224Z" fill="black"/>
</svg>

<svg width="64" height="65" viewBox="0 0 64 65" fill="none" xmlns="http://www.w3.org/2000/svg"><path d="M24.022 64.003a14.801 14.801 0 0 1-2.998-.31 13.827 13.827 0 0 1-10.602-10.21 13.44 13.44 0 0 1 4.606-13.82V8.503a8.763 8.763 0 0 1 2.74-6.112A8.75 8.75 0 0 1 24.022.003a8.76 8.76 0 0 1 6.25 2.391 8.773 8.773 0 0 1 2.743 6.11v31.25a13.298 13.298 0 0 1 4.997 10.55 13.578 13.578 0 0 1-4.997 10.54 14.104 14.104 0 0 1-8.993 3.16Zm0-61a5.763 5.763 0 0 0-5.996 5.5v32.69l-.64.44a10.48 10.48 0 0 0-4.046 11.17 10.8 10.8 0 0 0 8.273 8 11.265 11.265 0 0 0 9.474-2.24 10.58 10.58 0 0 0 3.927-8.26 10.187 10.187 0 0 0-4.357-8.57l-.64-.45V8.503a5.764 5.764 0 0 0-5.996-5.5Zm28.479 26H40.51a1.498 1.498 0 0 1-1.06-2.56c.281-.282.662-.44 1.06-.44H52.5a1.499 1.499 0 0 1 1.06 2.561 1.5 1.5 0 0 1-1.06.44Z" fill="currentColor"/><path d="M24.022 57.003a6.991 6.991 0 0 1-6.667-4.903 7.005 7.005 0 0 1 2.67-7.837v-15.26h7.994v15.26a7 7 0 0 1 2.67 7.837 7 7 0 0 1-6.667 4.903Zm-1-25v14l-.819.41a3.998 3.998 0 0 0-2.178 3.59 4.001 4.001 0 0 0 3.997 4 3.995 3.995 0 0 0 1.828-7.55l-.829-.45v-14h-1.999Z" fill="currentColor"/></svg>
